X: 403
T:Den store Paipolsen
M:3/4
L:1/8
C:Asmund Reistad
R:Polska
Q:1/4=150
A:Norway
N:Originally in A, transposed to fit better on flute
D:Chateau Neuf Spelemannslag - Tjuvgods
Z:Steve Mansfield June 2001
K:D
d&gt;(d d)f e&gt;c | d(A A)B A&gt;F |
G(B B) A/G/ A&gt;c | d(A A)B A2 |
d&gt;(d d)f e&gt;c | d(A A)d fa |
g&gt;a f&gt;d e&lt;c | d2 d4 ::
a(a a)f g&gt;e | f(f f)d e&gt;f |
dc/d/ e2 f&gt;d | e&gt;^g a4 |
b/g/b a/f/a g/e/g | f(f f)d e&gt;c |
dc/d/ e2 f&gt;d | c&lt;e d4 :|

